X:3367
T:Contentment is Wealth
S:Trad, arr. Paddy O'Brien
R:jig
E:11
I:speed 350
M:6/8
K:D
G/2A/2|GFG Eed|BAB EAG|(4FGAF DdB|AFD Def|\
gfe edB|BAB dcd|(4BcdB DFA|GEE E2:|\
e/2f/2|gbe gbe|gfg bag|fdd add|fdf afd|\
gfe edB|BAB dcd|(4BcdB DFA|GEE E2:|**


